Adwaita++-Dark/actions/16/object-move.svg

<svg height="16" width="16" xmlns="http://www.w3.org/2000/svg">
  <g fill="#e6ddff">
    <path d="m8 15.5-3-3.5h2v-2h2v2h2z"/>
    <path d="m8 .5-3 3.5h2v2h2v-2h2z"/>
    <path d="m15.5 8-3.5-3v2h-2v2h2v2z"/>
    <path d="m.5 8 3.5-3v2h2v2h-2v2z"/>
  </g>
</svg>

<svg xmlns="http://www.w3.org/2000/svg" width="16" height="16" version="1.1">
 <path style="fill:#E6DDFF" d="M 8,15.5 5,12 H 7 V 10 H 9 V 12 H 11 Z"/>
 <path style="fill:#E6DDFF" d="M 8,0.5 5,4 H 7 V 6 H 9 V 4 H 11 Z"/>
 <path style="fill:#E6DDFF" d="M 15.5,8 12,5 V 7 H 10 V 9 H 12 V 11 Z"/>
 <path style="fill:#E6DDFF" d="M 0.5,8 4,5 V 7 H 6 V 9 H 4 V 11 Z"/>
</svg>
